X:1
T:Sing Once More of Jesus
T:John Robson Sweney
T:Sing Once More of Jesus
T:Public Domain
T:Public Domain
C:John Robson Sweney
Z:Public Domain
%%score ( 1 2 ) ( 3 4 )
L:1/8
M:6/8
K:Bb
V:1 treble 
V:2 treble 
V:3 bass 
V:4 bass 
V:1
 [DF] | [DF]2 [DB] [DB]2 [FA] | [EG]3 [GB]2 [EG] | [DF]2 [FB] (BA)[_EB] | [Fc]3- [Fc]2 F | %5
w: 1.~Oh,|sing once more of|Je- sus, Tune|ev- ery heart * and|Pro- * claim|
w: 2.~Oh,|sing once more of|Je- sus, The|joy- ful strain * pro-|While * an-|
w: 3.~Oh,|sing once more of|Je- sus, And|now in ear- * ly|Come * let|
w: 4.~Oh,|sing once more of|Je- sus, Our|best and tru- * est|Whose * hand|
w: 5.~Oh,|sing once more of|Je- sus, Who|bends a list- * ening|From * yon-|
 [Fd]2 [=E^c] [Fd]2 F | [EG]3 [GB]2 [_Gc] | [Fd]2 [FB] [EB]2 [EA] | [DB]3- [DB]2 z || %9
w: ten- der mer- cy,|in His love|re- joice. * *||
w: ho- ver round us,|mar- tyrs join|the song. * *||
w: walk to- ge- ther,|path of life|and truth. * *||
w: snares of e- vil|still our hearts|de- fend. * *||
w: world of glo- ry,|child- ren’s song|to hear. * *||
"^Refrain" [Fd]2 z [DB]2 z | (cB)[EG] [EG]3 | [DF]2 [DB] ([DB][Ge])[Fd] | [Fd]3 [Fc]2 z | %13
w: ||||
w: ||||
w: ||||
w: ||||
w: ||||
 [Fd]2 [=E^c] [Fd]2 F | (GB)[EB] [EB]3 | [DF]2 [Ge] (dc)[FB] | [Ec]3 [DB]2 |] %17
w: ||||
w: ||||
w: ||||
w: ||||
w: ||||
V:2
 x | x6 | x6 | x3 =E2 x | x5 F | x5 F | x6 | x6 | x6 || x6 | E2 x4 | x6 | x6 | x5 F | E2 x4 | %15
w: |||voice,|His|And||||||||||
w: |||long,|gels|And||||||||||
w: |||youth,|us|The||||||||||
w: |||friend,|from|Will||||||||||
w: |||ear,|der|The||||||||||
 x3 F2 x | x5 |] %17
w: ||
w: ||
w: ||
w: ||
w: ||
V:3
 [B,,B,] | [B,,B,]2 [B,,F,] [B,,F,]2 [D,B,] | [E,B,]3 [E,B,]2 [E,B,] | %3
w: ~|~ ~ ~ ~|~ ~ ~|
 [B,,B,]2 [D,B,] [C,G,]2 [C,G,] | [F,A,]3- [F,A,]2 [F,A,] | [B,,B,]2 [B,,B,] [B,,B,]2 [D,B,] | %6
w: ~ ~ ~ ~|~ * ~|~ ~ ~ ~|
 [E,B,]3 [E,B,]2 [E,B,] | [F,B,]2 [F,D] [F,C]2 F, | [B,,F,]3- [B,,F,]2 z || [B,,B,]2 z [B,,F,]2 z | %10
w: ~ ~ ~|~ ~ ~ ~|Sing, *|sing, sing|
 [E,G,]2 [E,B,] [E,B,]3 | [B,,B,]2 [B,,F,] [B,,B,]2 [B,,B,] | [F,B,]3 [F,A,]2 z | %13
w: once more, Once|more sing of Je-|sus; Praise|
 [B,,B,]2 [B,,B,] [B,,B,]2 [D,B,] | (B,G,)[E,G,] [E,G,]3 | [D,B,]2 [E,B,] (B,E)[F,D] | %16
w: His wond- rous, match-|less * love; Sing|more of Je- * sus.|
 [F,A,]3 [B,,B,]2 |] %17
w: |
V:4
 x | x6 | x6 | x6 | x6 | x6 | x6 | x5 F, | x6 || x6 | x6 | x6 | x6 | x6 | E,2 x4 | x3 F,2 x | x5 |] %17
w: |||||||~|||||||once|||

